src/lib/packages/icons/src/assets/line/bed-front.svg

<svg xmlns="http://www.w3.org/2000/svg" width="24" height="24" fill="none"><path fill="currentColor" d="M21.75 17v-3c0-1.23-.35-2.17-1-2.81V6c0-2.42-1.33-3.75-3.75-3.75H7C4.58 2.25 3.25 3.58 3.25 6v5.19c-.65.64-1 1.58-1 2.81v7c0 .41.34.75.75.75s.75-.34.75-.75v-.75h16.5V21c0 .41.34.75.75.75s.75-.34.75-.75v-4Zm-17-11c0-1.58.67-2.25 2.25-2.25h10c1.58 0 2.25.67 2.25 2.25v4.41c-.16-.04-.32-.08-.5-.1V7.86c0-1.16-1.01-2.1-2.25-2.1h-3c-.58 0-1.1.21-1.5.55-.4-.34-.92-.55-1.5-.55h-3c-1.24 0-2.25.94-2.25 2.1v2.45c-.18.02-.34.06-.5.1V6Zm12.5 1.85v2.4h-4.5v-2.4c0-.33.34-.6.75-.6h3c.41 0 .75.27.75.6Zm-6 0v2.4h-4.5v-2.4c0-.33.34-.6.75-.6h3c.41 0 .75.27.75.6Zm-7.5 8.4V14c0-1.58.67-2.25 2.25-2.25h12c1.58 0 2.25.67 2.25 2.25v2.25H3.75Zm16.5 2.5H3.75v-1h16.5v1Z"/></svg>

<svg width="24" height="24" viewBox="0 0 24 24" fill="none" xmlns="http://www.w3.org/2000/svg">
<path d="M21.75 17V14C21.75 12.77 21.4 11.83 20.75 11.19V6C20.75 3.58 19.42 2.25 17 2.25H7C4.58 2.25 3.25 3.58 3.25 6V11.19C2.6 11.83 2.25 12.77 2.25 14V17V19.5V21C2.25 21.41 2.59 21.75 3 21.75C3.41 21.75 3.75 21.41 3.75 21V20.25H20.25V21C20.25 21.41 20.59 21.75 21 21.75C21.41 21.75 21.75 21.41 21.75 21V17ZM4.75 6C4.75 4.42 5.42 3.75 7 3.75H17C18.58 3.75 19.25 4.42 19.25 6V10.41C19.09 10.37 18.93 10.33 18.75 10.31V7.86C18.75 6.7 17.74 5.75999 16.5 5.75999H13.5C12.92 5.75999 12.4 5.97 12 6.31C11.6 5.97 11.08 5.75999 10.5 5.75999H7.5C6.26 5.75999 5.25 6.7 5.25 7.86V10.31C5.07 10.33 4.91 10.37 4.75 10.41V6ZM17.25 7.85001V10.25H12.75V7.85001C12.75 7.52001 13.09 7.25 13.5 7.25H16.5C16.91 7.25 17.25 7.52001 17.25 7.85001ZM11.25 7.85001V10.25H6.75V7.85001C6.75 7.52001 7.09 7.25 7.5 7.25H10.5C10.91 7.25 11.25 7.52001 11.25 7.85001ZM3.75 16.25V14C3.75 12.42 4.42 11.75 6 11.75H18C19.58 11.75 20.25 12.42 20.25 14V16.25H3.75ZM20.25 18.75H3.75V17.75H20.25V18.75Z" fill="currentColor"/>
</svg>
